!!!OTL: Der verkleidete Markgrafensohn.
!!!OTL-incipit: Es wollt' ein Koenigssohn freien gehn
!!!ARE: Europa, Mitteleuropa, Deutschland / France, Lothringen, Gelmingen
!!!YOR: 1, S. 52
!!    1930 aufgezeichnet (17. Jh. ?)
!!!SCT: Q0006B
!!!TXL: @@DE
!!!YEM: Copyright 1995, estate of Helmut Schaffrath.
**kern	**text
*ICvox	*
*M3/2	*
*k[f#]	*
*G:	*
{4dd	Es
=1	=1
4dd	wollt'
4g	ein
2a	Kö-
4a	-nigs-
4b	-ſohn
=2	=2
4cc	frei-
4a	-en
2b	gehn,
4r}	.
{4a	er
=3	=3
4g	freit'
4b	die
(<2a	Kö-
4b)	.
4g	-nigs-
=4	=4
2f#	-toch-
2g	-ter.
4r}	.
{4g	Er
=5	=5
4b	freit'
8g	ſie
8g	nicht
2a	län-
4a	-ger
4b	als
=6	=6
4cc	ſie-
4a	-ben
2b	Jahr
4r}	.
{4a	und
=7	=7
4g	konnt'
4b	ſie
(<2a	nicht
4b)	.
4g	er-
=8	=8
2f#	-wer-
2g	-ben.
4r}	.
==	==
!!!AGN: Ballade, Braut - Werbung
!!!ONB: ESAC (Essen Associative Code) Database: BALLADE
!!!AMT: simple triple
!!!AIN: vox
!!!EED: Helmut Schaffrath
!!!EEV: 1.0
!!!RDF**kern: <= below
!!@@COMMENT:"Text: Gelmingen (Lohrinen), 1930. Nach Pinck, Goethe S.79.)"
!!@@END:
!!!source: Deutsche Volkslieder mit ihren Melodien. Balladen. Herausgegeben vom Deutschen Volksliedarchiv. Erster Band Balladen. Berlin und Leipzig 1935.
!!!page: 52
!!!ENC: Anna Maria Matuszewska
!!!EEV: 2025/02/13
*-	*-
